X:6
T:Balkan Hills Schottische
M:C|
L:1/8
K:D
a>g|"D"f>A f>e d2A2|"G"B>G d>B "D"A2 d>e|"D"f>A A>a "Bm"g>f e>d|"E7"f2e2 "A7"e2 a>g|!
"D"f>A f>e d2A2|"G"B>G d>B "D"A2 d>e|"D"f>a ^g>a "A7"=g>e c>A|"D"d4d2:|!
|:f>g|"D"a>d f>a f2 e>d|"G"B>G d>B "D"A2 f>g|"D"a>d f>a "Bm"g>f e>d|"E7"f2e2 "A7"e2 f>g|"D"a>d f>a f2 e>d|!
"G"B>G d>B "D"A2 d>e|[1f>a ^g>a "A"=g>e c>A|"D"d4d2:|2"D"f>A A>a "A"g>e c>A|"D"d4 d2|]!
((3ABc)|"D"d2e2f2 e>d|"G"B>G d>B "D"A2d>e|"D"f>A A>a "Bm"g>f e>d|!
"E7"f2e2 "A7"e2 ((3ABc)|"D"d2e2f2 e>d|"G"B>G d>B "D"A2d>e|"D"f>a ^g>a "A7"=g>e c>A|"D"d4d2:|!
